X:347
T: Let Fame Sound the Trumpet
N: O'Farrell's Pocket Companion v.4 (Sky ed. p.150-1)
M: 3/4
L: 1/8
Q: 240
R: waltz
K: D
A| d2d2d2| d2 fedc| B2A2G2| F4E2|
D2d2e2| f2d2e2| f2 gfed| Ha4 AB|
c2e2f2| e3d c2| B2f2A2| A2 ^G2 Bc|
d2 cBA^G| A4 c2| fed cBA| A2^G2c2|
dcd ef^g| a4 ec| f2B2B2| B4c2|
dcd ef^g| a4c2| B2E2^G2| A4a2|
a2f2g2| a2 bagf| g2e2e2| e4 ag| f2d2A2|
B3ed2| B2c2zA| d2A2A2| F2A2A2| d2d2b2|
Ha2 A2G2| F3GA2| B2g2c2| d3z2A| d2d2d2|
d3 fef| d3 fef| d2A2A2| e2e2e2| e3 gfg|
e3 gfg| e2A2A2| f2f2f2| f3 aga| f3 aga|
f3 gfg| a3 bab| ababab| afgabc'| Hd'4 ag|
f2d2d2| e2A2A2| a6| b6| f2d2d2| e2A2A2|
a6| b6| a2f2d2| B2e2c2| d6-|d4 ||
